X: 29403
T: Nicky's Archive
R: barndance
M: 4/4
K: Dmajor
|:B|A2 F2 AA A2|B2 G2 BB B2|c2 A2 c2 e2|dc de fe dB|
A2 F2 AA A2|B2 G2 BB B2|c2 e2 A2 Bc|d2 d2 d3:|
|:B|A2 f2 f3e|e2 d2 dc B2|B2 g2 g3f|f2 e2 ed cB|
A2 f2 f3e|e2 d2 dc B2|B2 g2 g2 Bc|e2 d2 d3:|

